X:25
T:An Irish Jig
S:John Moore's Book 2
Z:Transcribed by Taz Tarry 04/2021
%%VWML: Moore1-4494-p24-0
F:http://www.vwml.org/record/Moore2/4494/p24
N:Either the anucrucis or the last bar of the A part are a quaver beat short in ms
M:6/8
L:1/8
K:G
de|fgf edB|Add d2e|f2 b afd|fee e2 (d/e/)|
fgf edB|Add d2e|f2 g e2 f|d2 z:|
f2g|afb a3|afb a3|afb agf|fee (d/e/)|
fgf edB|Add d2 e|f2g e2 g|d2 z:|

